public/avatar/body/231.svg

<svg xmlns:xlink="http://www.w3.org/1999/xlink" height="82" width="84.85" xmlns="http://www.w3.org/2000/svg"><g transform="translate(37.4 42.25)"><use height="38" transform="translate(-11.95 -17.45)" width="32.05" xlink:href="#a"/><use height="38.95" transform="translate(-12.45 -17.95)" width="33.05" xlink:href="#b"/><use height="24.45" transform="translate(-15.8 2.15)" width="39" xlink:href="#c"/></g><defs><path d="M27.35 7.4q2.15 4.15 3.55 8.75 1.45 4.7 1.15 9.5-.35 4.95-4.2 8.1-3.8 3.2-8.75 4.05l-2.6.2q-3.6 0-7.05-1.15-4.65-1.6-7.1-5.5Q-.2 27.4.05 23q.2-4.4 2-9.3Q3.85 8.75 7 5.05 10.1 1.3 14.7.1l1.8-.1q1.9.05 3.7.8 4.75 2.05 7.15 6.6" fill="#fff" fill-rule="evenodd" transform="translate(-.05)" id="d"/><path d="M27.35 7.4Q24.95 2.85 20.2.8 17.55-.3 14.7.1 10.1 1.3 7 5.05q-3.15 3.7-4.95 8.65-1.8 4.9-2 9.3-.25 4.4 2.3 8.35 2.45 3.9 7.1 5.5 4.65 1.55 9.65.95 4.95-.85 8.75-4.05 3.85-3.15 4.2-8.1.3-4.8-1.15-9.5-1.4-4.6-3.55-8.75Z" fill="none" stroke="#000" stroke-linecap="round" stroke-linejoin="round" transform="translate(.45 .5)" id="e"/><use height="38" width="32.05" xlink:href="#d" id="a"/><use height="38.95" width="33.05" xlink:href="#e" id="b"/><g id="c" fill-rule="evenodd"><path d="M20.55 15.4q1 4.2 1.95 5.85.2.45-.1.65-1.9 2.05-5.1 3.4-6.35 2.75-13-.25-.3-.15-.3-.45l.05-3.3.05-.35-.85.05.15 3.7-.15.3q-1.1 1.15-6.8.85-7.9-.4-10.5-3.85l-.05-.5q1.4-3.75 1.6-9.35l.05-.55.35-.45.55.1q3.05 2.8 15.7 2.45 12.2-.35 14.65-2.5l.55-.1.35.4.85 3.9" fill="#0a2228" transform="translate(15.8 -2.15)"/><path d="m18.75 12.45.75 3.4q.95 3.75 1.85 5.6-1.6 1.7-4.45 2.9-5.7 2.4-11.85-.15l.1-4.2-2.85.05Q2 20 2.3 24.3q-.95 1.05-6.8.5-6.35-.65-8.5-3.25.95-2.75 1.35-5.85l.25-3.05q4.1 2.45 16.15 2 11.2-.45 14-2.2" fill="#50ceff" transform="translate(15.8 -2.15)"/><path d="m.2 20.8 2.15.1q.2.55 0 1.9v1.65L.7 24.8q-.5-2.5-1.15-3.5H-.5q-.3-.5.7-.5m7.25-.05 6.65-.9 2-.15 2.05-.6q1.65-.55 1.8-.4 1.35 1.5 1.15 2.8-.25 1.25-4.3 2.9-4.8 1.95-9.25.65l-.95-.3q1.25-.35 1.35-.8L7.8 20.9l-.4-.05.05-.1" fill="#19658a" transform="translate(15.8 -2.15)"/><path d="M19.6 3.1q.25-.15.5 0 .35.2.55 4.85.25 7.85.6 8.4.4.4-.2.9-2.6 2.75-12.6 3.95-12.6 1.5-21.85-3.9l-.25-.55q.55-2.75.6-8.3l-.05-5 .05-.25 1.3.05L3.4 9.6q1.25-.35 16.2-6.5" fill="#0a2228" transform="translate(15.8 -2.15)"/><path d="M20.3 16.6q-.5.65-3.6 1.7-3.75 1.25-8 1.8-12.35 1.55-21.3-3.55.55-2.8.6-7.85l-.1-4.5 15.4 6.4q.4.05 16.15-6.35l.3 5.65q.15 6.05.55 6.7" fill="#50ceff" transform="translate(15.8 -2.15)"/><path d="m9.45 11.5-.1 5.45.1 3.05-4.85.4q2.9-1.15 3.1-1.55l-2.85-.15q1.95-.95 2.85-2.4l-2.45.15q1.9-1.1 2.55-2.5l-2.3.25 1.8-1.25-2.5.15 2.6-.95 2.05-.65m-10.55.2q1 .65 3.75 1.5l-2.7.15 1.95 1.3-2.4.3 2.05 1.35-1.95.95q1.4 1.1 2.5 1.4l-2.7.65q.3.45 2.1 1.1l-3.25-.3v-.65l.15-2.2.05-3.65.2-2.05.25.15" fill="#19658c" transform="translate(15.8 -2.15)"/><path d="M19.8 3.2q.3-.1.55.15l.5.95q.4 1.2.1 2.7l-.2.3q-.85.6-8 3.4-7.55 2.95-9.1 3-1.85.05-16.95-6.75l-.15-.1q-.65-1 .05-2.95.45-1.1.8-1.1.35-.1 16 6.45L19.8 3.2" fill="#0a2228" transform="translate(15.8 -2.15)"/><path d="M3.5 12.7q-1.5.05-16.1-6.5-.45-.7-.15-1.5.25-.75.5-.8L3.4 10.4l16.55-6.2.05 2.35q-.85.6-7.8 3.3-7.25 2.8-8.7 2.85" fill="#50ceff" transform="translate(15.8 -2.15)"/><path d="m20.35 5.2.05.25-.15.05L20 6.55 12.2 9.9q-7.25 2.85-8.7 2.9-1.5.05-16.1-6.6-.65-1 0-1.2l16.05 6.7 16.8-6.2.1-.3" fill="#19658c" transform="translate(15.8 -2.15)"/><path d="M-1.2 6.65q.35.1.35.5Q-.85 24.2-2.2 25l-.25.1q-2.15.1-5.6-.85-5.1-1.35-7.65-4.15l-.1-.35v-.1l.25-.35 1.4-1.45-.05-.45-.3-6.25q0-4.95 1.3-8.7l.3-.25h.4l11.3 4.45" fill="#414244" transform="translate(15.8 -2.15)"/><path d="M-13.15 18.1Q-14 7.85-12.4 3.3q7.7 3.35 10.55 4.2.15 15.9-.9 16.6-1.9.15-5.65-.9-4.55-1.3-6.15-3.4l1.4-1.7" fill="#fff" transform="translate(15.8 -2.15)"/><path d="M-7.55 11.15-6 10.3q-4.7-3.15-6.85-5.6l.4-1.65 10.95 3.9q.4 2.3-.05 8.65-.4 5.6-.85 7.45-.35.2-1.45 0-1.05-.2-1.3-.5l.55-3.95q-2.95-3.25-2.95-7.45" fill="#abb8d9" transform="translate(15.8 -2.15)"/><path d="M-6.8 10.95q1.1-.4 3.6-2.65-1.45.65-2.2 1.4-6.85-4.45-8.15-6.1l.75-1.45Q-9 3.55-1.15 6.7q.45 2.25-.05 8.6-.4 5.45-.8 7.45-.8.15-2.75-.5l.6-3.55q-1.95-3.15-2.65-7.75" fill="#414244" transform="translate(15.8 -2.15)"/><path d="M-6 11.2q1.2-.6 3.4-3.1-1.05-.1-2 .35l-.75.45q-6.95-4.55-7.55-5.3l.35-.75q4 1.95 10.8 4.6.55 9.4-1.1 14.65L-4 21.75l.5-3.2q-1.7-2.4-2.5-7.35" fill="#fff" transform="translate(15.8 -2.15)"/><path d="m20.3 2.25.25.3Q21.9 6.3 21.9 11.2l-.35 6.25v.5l1.35 1.45.3.35v.1l-.1.35q-2.6 2.8-7.7 4.15l-5.6.85-.25-.1Q8.3 24.25 8.2 7.25q0-.4.4-.5 2.95-.9 11.3-4.5h.4" fill="#414244" transform="translate(15.8 -2.15)"/><path d="m20.55 18.2 1.4 1.65q-1.6 2.1-6.2 3.45-3.7 1.05-5.6.9-1.1-.7-.95-16.6l10.55-4.2q1.65 4.55.8 14.8" fill="#fff" transform="translate(15.8 -2.15)"/><path d="M14.85 11.6q-.95 4.95-2.65 7.75l.55 3.35-3 .5q-.4-1.75-.7-7.35-.3-6.2.15-8.55l10.45-4.05.65 1.8q-3 3.45-6.25 5.65l.8.9" fill="#abb8d9" transform="translate(15.8 -2.15)"/><path d="m8.55 6.75 11.65-4.5.75 1.45q-1.2 1.5-8.15 6.1l-2.2-1.4 3.6 2.65q-.95 5.05-2.65 7.75l.6 3.55-2.75.5Q8.95 21 8.55 15.4q-.45-6.35 0-8.65" fill="#414244" transform="translate(15.8 -2.15)"/><path d="M10 8.2q2.1 2.45 3.4 3.05-.75 4.95-2.5 7.4l.5 3.2-1.2.35Q8.6 16.95 9.15 7.5q6.8-2.65 10.8-4.55l.35.75q-.55.7-7.55 5.25Q11.7 8 10 8.2" fill="#fff" transform="translate(15.8 -2.15)"/><path d="M-5.5 20.75q-.3 2.2-.9 2.35l-1.6-.2q-1.35-.25-1.8-.65l2.65.35q-3.15-.65-4.1-1.5 1.85.9 3.85.4l-4.35-2.2 5.25 1.25 1 .2" fill="#abb8d9" transform="translate(15.8 -2.15)"/><path d="m-11.85 19.35.55-2.35 6.5 1.6-.6 2.35-6.45-1.6" fill="#414244" transform="translate(15.8 -2.15)"/><path d="m-6.15 20.05-4.6-1.1.3-1.15 4.55 1.15-.25 1.1" fill="#fff" transform="translate(15.8 -2.15)"/><path d="M20.3 13.2q.8.7.35 5.1l.85 1.05-1.3 1.3-.9.5-1.1.45 1.1-.9-3 .6q1.6-.35 2-1.5l-2 .55-2.65-.05 1.75-.45 2.55-.6q1.6-.45 1.45-1.15l-.45-1-2.05.35-2.35.35q.65-.15 1.95-1.2.7-.5.7-1.25l-.15-2.8.15-.1-.1.05q.45-.75 1.65-.35 1.05.35 1.55 1.05" fill="#abb8d9" transform="translate(15.8 -2.15)"/><path d="m19.25 16.5.65 2.3-6.4 1.85-.7-2.35 6.45-1.8" fill="#414244" transform="translate(15.8 -2.15)"/><path d="m14.25 19.7-.35-1.1 4.55-1.3.3 1.15-4.5 1.25" fill="#fff" transform="translate(15.8 -2.15)"/><path d="m-13.2 18.1 1.05.6-1.7.2.6-.8h.05m-.1-1.2v-.15l1.55 1.35-1.45-.2-.1-1" fill="#abb8d9" transform="translate(15.8 -2.15)"/></g></defs></svg>

<?xml version="1.0" encoding="UTF-8" standalone="no"?>
<svg xmlns:xlink="http://www.w3.org/1999/xlink" height="82.0px" width="84.85px" xmlns="http://www.w3.org/2000/svg">
  <g transform="matrix(1.0, 0.0, 0.0, 1.0, 37.4, 42.25)">
    <use height="38.0" transform="matrix(1.0, 0.0, 0.0, 1.0, -11.95, -17.45)" width="32.05" xlink:href="#sprite0"/>
    <use height="38.95" transform="matrix(1.0, 0.0, 0.0, 1.0, -12.45, -17.95)" width="33.05" xlink:href="#sprite1"/>
    <use height="24.45" transform="matrix(1.0, 0.0, 0.0, 1.0, -15.8, 2.15)" width="39.0" xlink:href="#shape2"/>
  </g>
  <defs>
    <g id="sprite0" transform="matrix(1.0, 0.0, 0.0, 1.0, -0.05, 0.0)">
      <use height="38.0" transform="matrix(1.0, 0.0, 0.0, 1.0, 0.05, 0.0)" width="32.05" xlink:href="#shape0"/>
    </g>
    <g id="shape0" transform="matrix(1.0, 0.0, 0.0, 1.0, -0.05, 0.0)">
      <path d="M27.35 7.4 Q29.5 11.55 30.9 16.15 32.35 20.85 32.05 25.65 31.7 30.6 27.85 33.75 24.05 36.95 19.1 37.8 L16.5 38.0 Q12.9 38.0 9.45 36.85 4.8 35.25 2.35 31.35 -0.2 27.4 0.05 23.0 0.25 18.6 2.05 13.7 3.85 8.75 7.0 5.05 10.1 1.3 14.7 0.1 L16.5 0.0 Q18.4 0.05 20.2 0.8 24.95 2.85 27.35 7.4" fill="#ffffff" fill-rule="evenodd" stroke="none"/>
    </g>
    <g id="sprite1" transform="matrix(1.0, 0.0, 0.0, 1.0, 0.45, 0.5)">
      <use height="38.95" transform="matrix(1.0, 0.0, 0.0, 1.0, -0.45, -0.5)" width="33.05" xlink:href="#shape1"/>
    </g>
    <g id="shape1" transform="matrix(1.0, 0.0, 0.0, 1.0, 0.45, 0.5)">
      <path d="M27.35 7.4 Q24.95 2.85 20.2 0.8 17.55 -0.3 14.7 0.1 10.1 1.3 7.0 5.05 3.85 8.75 2.05 13.7 0.25 18.6 0.05 23.0 -0.2 27.4 2.35 31.35 4.8 35.25 9.45 36.85 14.1 38.4 19.1 37.8 24.05 36.95 27.85 33.75 31.7 30.6 32.05 25.65 32.35 20.85 30.9 16.15 29.5 11.55 27.35 7.4 Z" fill="none" stroke="#000000" stroke-linecap="round" stroke-linejoin="round" stroke-width="1.0"/>
    </g>
    <g id="shape2" transform="matrix(1.0, 0.0, 0.0, 1.0, 15.8, -2.15)">
      <path d="M20.55 15.4 Q21.55 19.6 22.5 21.25 22.7 21.7 22.4 21.9 20.5 23.95 17.3 25.3 10.95 28.05 4.3 25.05 4.0 24.9 4.0 24.6 L4.05 21.3 4.1 20.95 3.25 21.0 3.4 24.7 3.25 25.0 Q2.15 26.15 -3.55 25.85 -11.45 25.45 -14.05 22.0 L-14.1 21.5 Q-12.7 17.75 -12.5 12.15 L-12.45 11.6 -12.1 11.15 -11.55 11.25 Q-8.5 14.05 4.15 13.7 16.35 13.35 18.8 11.2 L19.35 11.1 19.7 11.5 20.55 15.4" fill="#0a2228" fill-rule="evenodd" stroke="none"/>
      <path d="M18.75 12.45 L19.5 15.85 Q20.45 19.6 21.35 21.45 19.75 23.15 16.9 24.35 11.2 26.75 5.05 24.2 L5.15 20.0 2.3 20.05 Q2.0 20.0 2.3 24.3 1.35 25.35 -4.5 24.8 -10.85 24.15 -13.0 21.55 -12.05 18.8 -11.65 15.7 L-11.4 12.65 Q-7.3 15.1 4.75 14.65 15.95 14.2 18.75 12.45" fill="#50ceff" fill-rule="evenodd" stroke="none"/>
      <path d="M0.2 20.8 L2.35 20.9 Q2.55 21.45 2.35 22.8 L2.35 24.45 0.7 24.8 Q0.2 22.3 -0.45 21.3 L-0.5 21.3 Q-0.8 20.8 0.2 20.8" fill="#19658a" fill-rule="evenodd" stroke="none"/>
      <path d="M7.45 20.75 L14.1 19.85 16.1 19.7 18.15 19.1 Q19.8 18.55 19.95 18.7 21.3 20.2 21.1 21.5 20.85 22.75 16.8 24.4 12.0 26.35 7.55 25.05 L6.6 24.75 Q7.85 24.4 7.95 23.95 L7.8 20.9 7.4 20.85 7.45 20.75" fill="#19658a" fill-rule="evenodd" stroke="none"/>
      <path d="M19.6 3.1 Q19.85 2.95 20.1 3.1 20.45 3.3 20.65 7.95 20.9 15.8 21.25 16.35 21.65 16.75 21.05 17.25 18.45 20.0 8.45 21.2 -4.15 22.7 -13.4 17.3 L-13.65 16.75 Q-13.1 14.0 -13.05 8.45 L-13.1 3.45 -13.05 3.2 -11.75 3.25 3.4 9.6 Q4.65 9.25 19.6 3.1" fill="#0a2228" fill-rule="evenodd" stroke="none"/>
      <path d="M20.3 16.6 Q19.8 17.25 16.7 18.3 12.95 19.55 8.7 20.1 -3.65 21.65 -12.6 16.55 -12.05 13.75 -12.0 8.7 L-12.1 4.2 3.3 10.6 Q3.7 10.65 19.45 4.25 L19.75 9.9 Q19.9 15.95 20.3 16.6" fill="#50ceff" fill-rule="evenodd" stroke="none"/>
      <path d="M9.45 11.5 L9.35 16.95 9.45 20.0 4.6 20.4 Q7.5 19.25 7.7 18.85 L4.85 18.7 Q6.8 17.75 7.7 16.3 L5.25 16.45 Q7.15 15.35 7.8 13.95 L5.5 14.2 7.3 12.95 4.8 13.1 7.4 12.15 9.45 11.5" fill="#19658c" fill-rule="evenodd" stroke="none"/>
      <path d="M-1.1 11.7 Q-0.1 12.35 2.65 13.2 L-0.05 13.35 1.9 14.65 -0.5 14.95 1.55 16.3 -0.4 17.25 Q1.0 18.35 2.1 18.65 L-0.6 19.3 Q-0.3 19.75 1.5 20.4 L-1.75 20.1 -1.75 19.45 -1.6 17.25 -1.55 13.6 -1.35 11.55 -1.1 11.7" fill="#19658c" fill-rule="evenodd" stroke="none"/>
      <path d="M19.8 3.2 Q20.1 3.1 20.35 3.35 L20.85 4.3 Q21.25 5.5 20.95 7.0 L20.75 7.3 Q19.9 7.9 12.75 10.7 5.2 13.65 3.65 13.7 1.8 13.75 -13.3 6.95 L-13.45 6.85 Q-14.1 5.85 -13.4 3.9 -12.95 2.8 -12.6 2.8 -12.25 2.7 3.4 9.25 L19.8 3.2" fill="#0a2228" fill-rule="evenodd" stroke="none"/>
      <path d="M3.5 12.7 Q2.0 12.75 -12.6 6.2 -13.05 5.5 -12.75 4.7 -12.5 3.95 -12.25 3.9 L3.4 10.4 19.95 4.2 20.0 6.55 Q19.15 7.15 12.2 9.85 4.95 12.65 3.5 12.7" fill="#50ceff" fill-rule="evenodd" stroke="none"/>
      <path d="M20.35 5.2 L20.4 5.45 20.25 5.5 20.0 6.55 12.2 9.9 Q4.95 12.75 3.5 12.8 2.0 12.85 -12.6 6.2 -13.25 5.2 -12.6 5.0 L3.45 11.7 20.25 5.5 20.35 5.2" fill="#19658c" fill-rule="evenodd" stroke="none"/>
      <path d="M-1.2 6.65 Q-0.85 6.75 -0.85 7.15 -0.85 24.2 -2.2 25.0 L-2.45 25.1 Q-4.6 25.2 -8.05 24.25 -13.15 22.9 -15.7 20.1 L-15.8 19.75 -15.8 19.65 -15.55 19.3 -14.15 17.85 -14.2 17.4 -14.5 11.15 Q-14.5 6.2 -13.2 2.45 L-12.9 2.2 -12.5 2.2 -1.2 6.65" fill="#414244" fill-rule="evenodd" stroke="none"/>
      <path d="M-13.15 18.1 Q-14.0 7.85 -12.4 3.3 -4.7 6.65 -1.85 7.5 -1.7 23.4 -2.75 24.1 -4.65 24.25 -8.4 23.2 -12.95 21.9 -14.55 19.8 L-13.15 18.1" fill="#ffffff" fill-rule="evenodd" stroke="none"/>
      <path d="M-7.55 11.15 L-6.0 10.3 Q-10.7 7.15 -12.85 4.7 L-12.45 3.05 -1.5 6.95 Q-1.1 9.25 -1.55 15.6 -1.95 21.2 -2.4 23.05 -2.75 23.25 -3.85 23.05 -4.9 22.85 -5.15 22.55 L-4.6 18.6 Q-7.55 15.35 -7.55 11.15" fill="#abb8d9" fill-rule="evenodd" stroke="none"/>
      <path d="M-6.8 10.95 Q-5.7 10.55 -3.2 8.3 -4.65 8.95 -5.4 9.7 -12.25 5.25 -13.55 3.6 L-12.8 2.15 Q-9.0 3.55 -1.15 6.7 -0.7 8.95 -1.2 15.3 -1.6 20.75 -2.0 22.75 -2.8 22.9 -4.75 22.25 L-4.15 18.7 Q-6.1 15.55 -6.8 10.95" fill="#414244" fill-rule="evenodd" stroke="none"/>
      <path d="M-6.0 11.2 Q-4.8 10.6 -2.6 8.1 -3.65 8.0 -4.6 8.45 L-5.35 8.9 Q-12.3 4.35 -12.9 3.6 L-12.55 2.85 Q-8.55 4.8 -1.75 7.45 -1.2 16.85 -2.85 22.1 L-4.0 21.75 -3.5 18.55 Q-5.2 16.15 -6.0 11.2" fill="#ffffff" fill-rule="evenodd" stroke="none"/>
      <path d="M20.3 2.25 L20.55 2.55 Q21.9 6.3 21.9 11.2 L21.55 17.45 21.55 17.95 22.9 19.4 23.2 19.75 23.2 19.85 23.1 20.2 Q20.5 23.0 15.4 24.35 L9.8 25.2 9.55 25.1 Q8.3 24.25 8.2 7.25 8.2 6.85 8.6 6.75 11.55 5.85 19.9 2.25 L20.3 2.25" fill="#414244" fill-rule="evenodd" stroke="none"/>
      <path d="M20.55 18.2 L21.95 19.85 Q20.35 21.95 15.75 23.3 12.05 24.35 10.15 24.2 9.05 23.5 9.2 7.6 L19.75 3.4 Q21.4 7.95 20.55 18.2" fill="#ffffff" fill-rule="evenodd" stroke="none"/>
      <path d="M14.85 11.6 Q13.9 16.55 12.2 19.35 L12.75 22.7 9.75 23.2 Q9.35 21.45 9.05 15.85 8.75 9.65 9.2 7.3 L19.65 3.25 20.3 5.05 Q17.3 8.5 14.05 10.7 L14.85 11.6" fill="#abb8d9" fill-rule="evenodd" stroke="none"/>
      <path d="M8.55 6.75 L20.2 2.25 20.95 3.7 Q19.75 5.2 12.8 9.8 L10.6 8.4 14.2 11.05 Q13.25 16.1 11.55 18.8 L12.15 22.35 9.4 22.85 Q8.95 21.0 8.55 15.4 8.1 9.05 8.55 6.75" fill="#414244" fill-rule="evenodd" stroke="none"/>
      <path d="M10.0 8.2 Q12.1 10.65 13.4 11.25 12.65 16.2 10.9 18.65 L11.4 21.85 10.2 22.2 Q8.6 16.95 9.15 7.5 15.95 4.85 19.95 2.95 L20.3 3.7 Q19.75 4.4 12.75 8.95 11.7 8.0 10.0 8.2" fill="#ffffff" fill-rule="evenodd" stroke="none"/>
      <path d="M-5.5 20.75 Q-5.8 22.95 -6.4 23.1 L-8.0 22.9 Q-9.35 22.65 -9.8 22.25 L-7.15 22.6 Q-10.3 21.95 -11.25 21.1 -9.4 22.0 -7.4 21.5 L-11.75 19.3 -6.5 20.55 -5.5 20.75" fill="#abb8d9" fill-rule="evenodd" stroke="none"/>
      <path d="M-11.85 19.35 L-11.3 17.0 -4.8 18.6 -5.4 20.95 -11.85 19.35" fill="#414244" fill-rule="evenodd" stroke="none"/>
      <path d="M-6.15 20.05 L-10.75 18.95 -10.45 17.8 -5.9 18.95 -6.15 20.05" fill="#ffffff" fill-rule="evenodd" stroke="none"/>
      <path d="M20.3 13.2 Q21.1 13.9 20.65 18.3 L21.5 19.35 20.2 20.65 19.3 21.15 18.2 21.6 19.3 20.7 16.3 21.3 Q17.9 20.95 18.3 19.8 L16.3 20.35 13.65 20.3 15.4 19.85 17.95 19.25 Q19.55 18.8 19.4 18.1 L18.95 17.1 16.9 17.45 14.55 17.8 Q15.2 17.65 16.5 16.6 17.2 16.1 17.2 15.35 L17.05 12.55 17.2 12.45 17.1 12.5 Q17.55 11.75 18.75 12.15 19.8 12.5 20.3 13.2" fill="#abb8d9" fill-rule="evenodd" stroke="none"/>
      <path d="M19.25 16.5 L19.9 18.8 13.5 20.65 12.8 18.3 19.25 16.5" fill="#414244" fill-rule="evenodd" stroke="none"/>
      <path d="M14.25 19.7 L13.9 18.6 18.45 17.3 18.75 18.45 14.25 19.7" fill="#ffffff" fill-rule="evenodd" stroke="none"/>
      <path d="M-13.2 18.1 L-12.15 18.7 -13.85 18.9 -13.25 18.1 -13.2 18.1" fill="#abb8d9" fill-rule="evenodd" stroke="none"/>
      <path d="M-13.3 16.9 L-13.3 16.75 -11.75 18.1 -13.2 17.9 -13.3 16.9" fill="#abb8d9" fill-rule="evenodd" stroke="none"/>
    </g>
  </defs>
</svg>
